X:40
T:Mandolin Concerto in C Major, 2nd mvmt-Largo Sequenced 
C:Sequenced by V. Phillips
N:TablEdited by Michael P Herlihy
L:1/8
Q:1/4=200
M:4/4
K:C
z8 | z3/4A/4A3/4c/4 c3/4e/4e3/4a/4 a3/4e/4e3/4c/4 c3/4A/4A3/4c/4 | B3/4E/4E3/4^G/4 G3/4B/4B3/4e/4 e3/4^g/4g3/4b/4 b3/4d/4d3/4c/4 | 
c3/4A/4A3/4c/4 c3/4e/4e3/4a/4 a3/4e/4e3/4c/4 c3/4A/4A3/4e/4 | ^d3/4B/4B3/4d/4 d3/4^f/4f3/4b/4 b3/4f/4f3/4d/4 d3/4B/4B | 
ze3/4B/4 B3/4G/4G3/4E/4 E3/4G/4G3/4B/4 B3/4e/4e3/4g/4 | z3/4Bz/4 ^f/8g/8f/8gz/8e4z/ | 
z3/4A/4A3/4c/4 c3/4e/4e3/4a/4 a3/4e/4e3/4c/4 c3/4A/4A3/4c/4 | B3/4E/4E3/4^G/4 G3/4B/4B3/4e/4 e3/4^g/4g3/4b/4 b3/4d/4d3/4c/4 | 
c3/4A/4A3/4c/4 c3/4e/4e3/4a/4 a3/4e/4e3/4c/4 c3/4A/4A3/4e/4 | ^d3/4B/4B3/4d/4 d3/4^f/4f3/4b/4 b3/4f/4f3/4d/4 d3/4B/4B | 
ze3/4B/4 B3/4G/4G3/4E/4 E3/4G/4G3/4B/4 B3/4e/4e3/4g/4 | z3/4Bz/4 ^f/8g/8f/8gz/8e4z/ | 
z3/4E/4E3/4G/4 G3/4B/4B3/4e/4 e3/4g/4g3/4b/4 b3/4g/4g3/4e/4 | ^c3/4A/4A3/4c/4 c3/4e/4e3/4g/4 g3/4_b/4b3/4g/4 g3/4e/4e3/4f/4 | 
f3/4D/4D3/4F/4 F3/4A/4A3/4d/4 d3/4f/4f3/4a/4 a3/4d/4d3/4B/4 | B3/4G/4G3/4B/4 B3/4d/4d3/4f/4 f3/4a/4a3/4f/4 f3/4d/4d3/4e/4 | 
e3/4g/4g3/4e/4 e3/4c/4c3/4A/4 A7/4f/4 f3/4d/4d3/4A/4 | ^G7/4e/4 e3/4d/4d3/4c/4 c3/4A/4c3/4e/4 a3/4A/4c3/4e/4 | 
zc3/4A/4 B3/2A/ A4 | z8 | 
 

